component-icons/svg/forms.svg

<?xml version="1.0" encoding="utf-8"?>
<!-- Generator: Adobe Illustrator 20.0.0, SVG Export Plug-In . SVG Version: 6.00 Build 0)  -->
<svg version="1.1" id="Layer_1" xmlns="http://www.w3.org/2000/svg" xmlns:xlink="http://www.w3.org/1999/xlink" x="0px" y="0px"
	 viewBox="0 0 24 24" style="enable-background:new 0 0 24 24;" xml:space="preserve">
<style type="text/css">
	.st0{fill:#808080;}
</style>
<path class="st0" d="M1,8h22l-2,2H1V8z M1,6h20l2-2H1V6z M1,2h20l2-2H1V2z M1,24h10v-4H1V24z M1,14h20l2-2H1V14z M13,24h10v-4H13V24
	z M1,18h20l2-2H1V18z"/>
</svg>

<svg id="Layer_1" data-name="Layer 1" xmlns="http://www.w3.org/2000/svg" viewBox="0 0 24 24">
  <defs>
    <style>
      .cls-1 {
        fill: gray;
      }
    </style>
  </defs>
  <title>forms</title>
  <path class="cls-1" d="M1,18H21l2-2H1ZM23,0H1V2H21ZM1,24H11V20H1Zm12,0H23V20H13ZM1,6H21l2-2H1Zm0,8H21l2-2H1Zm0-4H21l2-2H1Z"/>
</svg>
